X: 27
M: 6/8
L: 1/8
K: G
| TG3 BGB | (AF)A Tc2A | (GB)c d2f |1 gdB cAF :|2 gdB cAG |]
|: vgdc BGB | (AF)A Tc2A | gdc BGB | dcB "4"ecA |
| gdc BGB | (AF)A Tc2A | (GB)c d2f |1 gdB cAF :|2 gdB cAF |]


